X: 1
T: An Irish Lullaby
M: 2/4
L: 1/8
R: polka
K: Gmaj
|: G|(GA) (Bc/d/)|ec dB|(cd) B2|(cd) B2|
(GA) (Bc/d/)|(ed/c/) dB|GB A2|1GB A :|2 GB A2||
|: (de/f/) (gf/g/)|ag ed|BG A2|B(G/B/ A2)|
(de/f/) (gf/g/)|ag ed|DE G2|(DE/F/) G2 :|
